X:144310
T:Auld Hoose
H: 
B: Scots Guard II / Canadian Cadet Program
C:
O:Kevin Fraser
Z:Kevin Fraser
Q:1/4=90
K:HP
M:4/4
L:1/8
R:March
U: R = ///
U: r = //
U: V = !accent!
V:M gstem=up stem=down name="Melody"
V:H gstem=up stem=down name="Harmony"
V:C gstem=up stem=down name="C-Harmony"
V:S gstem=up stem=down dyn=up stafflines=1 clef=perc middle=G name="Snare" sname="Snare"" sname="Snare"
V:B gstem=up stem=down clef=none dyn=up name="Bass"
V:T gstem=up stem=down clef=none dyn=up name="Tenor"
V:BB gstem=up stem=down name="Brass Bass" sname="ABCD-C" transpose=-1  octave=-1 clef=bass
V:BC gstem=up stem=down name="Brass Chord" sname="ABCD-D" transpose=-1
V:BD gstem=up stem=down name="Brass Chord 2" sname="ABCD-B" transpose=-1
V:P gstem=up stem=down name="Piano" octave=-1
I:MIDI=program 110
%%MIDI program 109 #bagpipes
%%MIDI vol 100
[V:M]{g}de | {gfg}f4 {gef}e2 d2 | {gef}ed3 {gBd}B3d | {g}A3{d}B {Gdc}d2 f2 | {gef}e4 {A}e2 {g}de|
[V:M]      | {gfg}f4 {gef}e2 d2 | {gef}ed3 {gBd}B3d | {g}Af3 {gfg}f3e | {Gdc}d4 {gdG}d3 {g}d ||
[V:M]      | {gef}e3{A}e {gfg}f2 {ag}a2 | B3{GdG}B {G}A2 {g}f | {ag}a3f {gef}e2 d2 |{gef}e4 {A}e {g}de|
[V:M]      | {gfg}f4 {gef}e2 d2 | {gef}ed3 {gBd}B3d | {g}Af3 {gfg}f3e | {Gdc}d4 {gdG}d3  ||
W: ASPD plays this with Rowan Tree and Flett from Flotta


